packages/core/src/svgs/tokens/mono/MAPS.svg

<svg width="24" height="24" viewBox="0 0 24 24" fill="none" xmlns="http://www.w3.org/2000/svg">
<path d="M10.1949 3.235C7.21204 3.82938 7.21761 4.907 7.22317 6.17906V6.3346L8.26747 6.13463C8.18415 5.57915 8.47856 4.54594 10.3227 4.19044C12.1337 3.83492 12.6669 4.71258 12.728 5.3014L13.7279 5.11254C13.7501 4.24598 13.0669 2.66286 10.1949 3.235ZM5.58448 14.8446L3.307 17.1388L2.24047 11.4173L5.58448 14.8446ZM3.61251 18.8163L3.46254 17.9998L6.08997 15.3613L10.6671 20.055L6.54547 20.8439C6.21962 20.9047 5.88496 20.9005 5.56076 20.8313C5.23658 20.7622 4.92928 20.6296 4.65661 20.441C4.38394 20.2526 4.15129 20.012 3.97209 19.7331C3.79288 19.4543 3.67068 19.1427 3.61251 18.8163ZM17.2108 18.8108L11.517 19.8884L10.4894 18.8329L13.9001 15.4112L17.2108 18.7996V18.8108ZM19.9548 18.2886L18.0606 18.6497L14.4055 14.9057L17.8774 11.4228L21.999 15.7222C22.0155 16.3212 21.8191 16.9065 21.4449 17.3743C21.0706 17.842 20.5427 18.1621 19.9548 18.2775V18.2886ZM20.7047 8.58986L21.799 14.4779L18.3884 10.9118L20.7047 8.58986ZM20.3881 6.87897L20.5436 7.72887L17.8885 10.3951L14.5389 6.88453L16.3497 5.06254L17.4608 4.85146C17.7861 4.79139 18.1202 4.79625 18.4438 4.86576C18.7674 4.93526 19.0739 5.06805 19.346 5.25647C19.6181 5.4449 19.8502 5.68524 20.0291 5.9637C20.2079 6.24214 20.3299 6.5532 20.3881 6.87897ZM6.61213 6.91786L15.0943 5.30696L10.0117 10.4007L6.61768 6.91786H6.61213ZM4.0458 7.41224L5.76779 7.07895L9.50618 10.9118L6.09553 14.3336L2.01273 10.1564C1.94958 9.528 2.1229 8.8987 2.49883 8.39129C2.87476 7.88389 3.42631 7.53482 4.0458 7.41224ZM14.0279 7.39557L17.383 10.9006L13.9056 14.3892L10.5172 10.9173L14.0279 7.39557ZM11.167 14.778C11.167 15.0726 11.05 15.3552 10.8417 15.5636C10.6333 15.7719 10.3507 15.8889 10.0561 15.8889C9.76152 15.8889 9.47896 15.7719 9.27056 15.5636C9.0622 15.3552 8.94516 15.0726 8.94516 14.778C8.94516 14.4833 9.0622 14.2007 9.27056 13.9924C9.47896 13.784 9.76152 13.667 10.0561 13.667C10.3507 13.667 10.6333 13.784 10.8417 13.9924C11.05 14.2007 11.167 14.4833 11.167 14.778Z" fill="white"/>
</svg>

<svg xmlns="http://www.w3.org/2000/svg" width="24" height="24" fill="none" viewBox="0 0 24 24">
    <path fill="#fff" d="M10.195 3.235c-2.983.594-2.977 1.672-2.972 2.944v.156l1.044-.2c-.083-.556.212-1.59 2.056-1.945 1.81-.355 2.344.523 2.405 1.111l1-.188c.022-.867-.661-2.45-3.533-1.878m-4.61 11.61-2.278 2.294-1.067-5.722zm-1.972 3.971L3.463 18l2.627-2.64 4.577 4.694-4.122.789a2.51 2.51 0 0 1-2.932-2.028m13.598-.005-5.694 1.077-1.028-1.055L13.9 15.41l3.31 3.389zm2.744-.522-1.894.36-3.655-3.743 3.471-3.483 4.122 4.3a2.53 2.53 0 0 1-2.044 2.554zm.75-9.7 1.094 5.889-3.41-3.566zm-.317-1.71.156.85-2.655 2.666-3.35-3.51 1.81-1.822 1.112-.212a2.51 2.51 0 0 1 2.927 2.028m-13.776.039 8.482-1.611-5.082 5.094-3.394-3.483zm-2.566.494 1.722-.333 3.738 3.833-3.41 3.422-4.083-4.178a2.54 2.54 0 0 1 2.033-2.744m9.982-.016 3.355 3.505-3.477 3.488-3.389-3.472zm-2.861 7.382a1.111 1.111 0 1 1-2.223 0 1.111 1.111 0 0 1 2.223 0"/>
</svg>
